svg/building/eiffel_tower_fill.svg

<?xml version="1.0" encoding="UTF-8"?>
<svg width="24px" height="24px" viewBox="0 0 24 24" version="1.1" xmlns="http://www.w3.org/2000/svg" xmlns:xlink="http://www.w3.org/1999/xlink">
    <title>eiffel_tower_fill</title>
    <g id="页面-1" stroke="none" stroke-width="1" fill="none" fill-rule="evenodd">
        <g id="Building" transform="translate(-864.000000, -144.000000)">
            <g id="eiffel_tower_fill" transform="translate(864.000000, 144.000000)">
                 <path d="M24,0 L24,24 L0,24 L0,0 L24,0 Z M12.5934901,23.257841 L12.5819402,23.2595131 L12.5108777,23.2950439 L12.4918791,23.2987469 L12.4918791,23.2987469 L12.4767152,23.2950439 L12.4056548,23.2595131 C12.3958229,23.2563662 12.3870493,23.2590235 12.3821421,23.2649074 L12.3780323,23.275831 L12.360941,23.7031097 L12.3658947,23.7234994 L12.3769048,23.7357139 L12.4804777,23.8096931 L12.4953491,23.8136134 L12.4953491,23.8136134 L12.5071152,23.8096931 L12.6106902,23.7357139 L12.6232938,23.7196733 L12.6232938,23.7196733 L12.6266527,23.7031097 L12.609561,23.275831 C12.6075724,23.2657013 12.6010112,23.2592993 12.5934901,23.257841 L12.5934901,23.257841 Z M12.8583906,23.1452862 L12.8445485,23.1473072 L12.6598443,23.2396597 L12.6498822,23.2499052 L12.6498822,23.2499052 L12.6471943,23.2611114 L12.6650943,23.6906389 L12.6699349,23.7034178 L12.6699349,23.7034178 L12.678386,23.7104931 L12.8793402,23.8032389 C12.8914285,23.8068999 12.9022333,23.8029875 12.9078286,23.7952264 L12.9118235,23.7811639 L12.8776777,23.1665331 C12.8752882,23.1545897 12.8674102,23.1470016 12.8583906,23.1452862 L12.8583906,23.1452862 Z M12.1430473,23.1473072 C12.1332178,23.1423925 12.1221763,23.1452606 12.1156365,23.1525954 L12.1099173,23.1665331 L12.0757714,23.7811639 C12.0751323,23.7926639 12.0828099,23.8018602 12.0926481,23.8045676 L12.108256,23.8032389 L12.3092106,23.7104931 L12.3186497,23.7024347 L12.3186497,23.7024347 L12.3225043,23.6906389 L12.340401,23.2611114 L12.337245,23.2485176 L12.337245,23.2485176 L12.3277531,23.2396597 L12.1430473,23.1473072 Z" id="MingCute" fill-rule="nonzero"></path>
                <path d="M12.0001,1 C12.5523,1 13.0001,1.44772 13.0001,2 L13.0001,3.95655 C13.031,4.30684 13.069,4.65644 13.1087,5.00584 C13.6099,5.05999 14.0001,5.48443 14.0001,6 C14.0001,6.42443 13.7356,6.7871 13.3625,6.93227 L13.4256,7.34562 L13.4256,7.34562 C13.7009,9.1077 14.1171,11.2164 14.7079,13 L15.0001,13 C15.5523,13 16.0001,13.4477 16.0001,14 C16.0001,14.3849 15.7826,14.719 15.4638,14.8862 C15.6418,15.2615 15.8336,15.6341 16.0343,16 L17.0001,16 C17.5523,16 18.0001,16.4477 18.0001,17 C18.0001,17.4733 17.6713,17.8697 17.2297,17.9735 C18.0005,19.1419 18.8334,20.2839 19.7526,21.3415 C20.0109,21.6368 20.0728,22.056 19.9107,22.4132 C19.7485,22.7705 19.3924,23 19.0001,23 L15.0001,23 C14.6531667,23 14.3345988,22.820642 14.153328,22.5321591 L14.092,22.419 C13.9626,22.1517 13.7765,21.9104 13.5698,21.6987 C13.2043,21.3244 12.6966,21 12.0001,21 C11.3035,21 10.7958,21.3244 10.4303,21.6987 C10.2667,21.8663 10.114172,22.055596 9.99356976,22.2600344 L9.90806,22.4189 C9.74474,22.773 9.39034,23 9.00005,23 L5.00005,23 C4.60768,23 4.25156,22.7705 4.08942,22.4132 C3.92827,22.0581 3.99274,21.6337 4.24855,21.3403 C5.16782,20.2823 5.99876,19.1432 6.77039,17.9735 C6.3288,17.8697 6.00005,17.4733 6.00005,17 C6.00005,16.4477 6.44777,16 7.00005,16 L7.96576,16 C8.16646,15.6341 8.35834,15.2615 8.53628,14.8862 C8.21752,14.719 8.00005,14.3849 8.00005,14 C8.00005,13.4477 8.44777,13 9.00005,13 L9.29221,13 C9.81732111,11.4145778 10.2045478,9.57228642 10.4774673,7.94489635 L10.6376,6.93227 L10.6376,6.93227 C10.2645,6.7871 10.0001,6.42443 10.0001,6 C10.0001,5.48443 10.3902,5.05999 10.8914,5.00584 C10.9311,4.65644 10.9691,4.30684 11.0001,3.95655 L11.0001,2 C11.0001,1.44772 11.4478,1 12.0001,1 Z M13.323,15 L10.6771,15 L10.4554875,15.5025125 L10.4554875,15.5025125 L10.2194,16 L13.7807,16 L13.5446125,15.5025125 L13.5446125,15.5025125 L13.323,15 Z" id="形状" fill="#09244B"></path>
            </g>
        </g>
    </g>
</svg>

<svg xmlns="http://www.w3.org/2000/svg" width="24" height="24"><g fill="none" fill-rule="evenodd"><path d="M24 0v24H0V0h24ZM12.593 23.258l-.011.002-.071.035-.02.004-.014-.004-.071-.035c-.01-.004-.019-.001-.024.005l-.004.01-.017.428.005.02.01.013.104.074.015.004.012-.004.104-.074.012-.016.004-.017-.017-.427c-.002-.01-.009-.017-.017-.018Zm.265-.113-.013.002-.185.093-.01.01-.003.011.018.43.005.012.008.007.201.093c.012.004.023 0 .029-.008l.004-.014-.034-.614c-.003-.012-.01-.02-.02-.022Zm-.715.002a.023.023 0 0 0-.027.006l-.006.014-.034.614c0 .012.007.02.017.024l.015-.002.201-.093.01-.008.004-.011.017-.43-.003-.012-.01-.01-.184-.092Z"/><path fill="#09244B" d="M12 1a1 1 0 0 1 1 1v1.957c.031.35.069.7.109 1.049a1 1 0 0 1 .254 1.926l.063.414c.275 1.762.691 3.87 1.282 5.654H15a1 1 0 0 1 .464 1.886c.178.376.37.748.57 1.114H17a1 1 0 0 1 .23 1.974c.77 1.168 1.603 2.31 2.523 3.367A1 1 0 0 1 19 23h-4a1 1 0 0 1-.847-.468l-.061-.113a2.789 2.789 0 0 0-.522-.72C13.204 21.324 12.697 21 12 21c-.697 0-1.204.324-1.57.699a2.992 2.992 0 0 0-.436.561l-.086.159A1 1 0 0 1 9 23H5a1 1 0 0 1-.751-1.66c.919-1.058 1.75-2.197 2.521-3.366A1 1 0 0 1 7 16h.966c.2-.366.392-.739.57-1.114A1 1 0 0 1 9 13h.292c.525-1.585.913-3.428 1.185-5.055l.16-1.013a1 1 0 0 1 .254-1.926c.04-.35.078-.7.11-1.05V2a1 1 0 0 1 1-1Zm1.323 14h-2.646l-.222.503-.236.497h3.562l-.236-.497-.222-.503Z"/></g></svg>
